Front/img/common/underline/underline-3.svg

<svg width="206" height="8" viewBox="0 0 206 8" fill="none" xmlns="http://www.w3.org/2000/svg">
<path d="M187.506 5.19298C185.862 5.80117 184.116 6.36257 182.472 6.97076C182.164 7.11111 182.061 7.25146 181.958 7.39181C181.958 7.67252 182.472 7.95322 183.191 8C183.499 8 184.013 7.95322 184.321 7.76608L189.664 6.12865C194.801 4.81871 193.979 4.91228 199.013 3.92982C199.116 3.92982 204.87 2.90059 205.075 2.61988C205.692 2.10526 206 1.73099 206 1.45029V1.35673C206 0.842106 204.973 0.748538 203.637 0.561403C202.404 0.51462 201.068 0.467836 199.835 0.421053C198.808 0.37427 197.781 0.374269 196.753 0.374269H177.746L127.915 0.0467855C121.237 0.0467855 116.716 0 110.141 0C104.49 0.0467844 98.9417 0.0467855 93.3935 0.0467855H85.585C83.222 0.0935686 80.9616 0.14035 78.7013 0.14035C67.3995 0.280702 56.0978 0.561403 44.796 0.888889C37.193 1.16959 29.59 1.40351 21.987 1.87135C17.0554 2.19883 12.1237 2.43275 7.29476 2.76023C5.44539 2.8538 3.59601 2.94737 1.74663 3.1345C0.616459 3.46199 0.102743 3.88304 0 4.30409V4.39766C0 5.00585 1.02743 5.61403 2.56858 5.7076C3.28778 5.7076 4.10973 5.61403 4.93167 5.38012C6.57556 5.09941 8.21945 5.00585 9.96608 4.77193C14.5895 4.35088 19.3157 3.97661 24.1446 3.64912C31.4394 3.18129 38.9396 2.76023 46.3372 2.33918C57.4334 1.77778 68.6324 1.54386 79.7287 1.21638C81.989 1.16959 84.2494 1.12281 86.5097 1.02924C89.0783 0.982456 91.5442 0.888889 94.1127 0.842106C105.517 0.608188 116.922 0.561403 128.326 0.561403H131.511C147.231 0.561403 162.745 0.88889 178.465 1.30994C182.266 1.40351 186.171 1.54386 189.972 1.73099L194.698 1.96491C195.726 1.96491 196.65 2.05848 197.678 2.10526C195.828 2.66667 194.39 3.04094 192.335 3.69591C190.794 4.21053 189.047 4.72515 187.506 5.19298Z" fill="#FE3945"/>
</svg>

<svg xmlns="http://www.w3.org/2000/svg" fill="none" viewBox="0 0 206 8"><path fill="#FE3945" d="M187.506 5.193c-1.644.608-3.39 1.17-5.034 1.778-.308.14-.411.28-.514.42 0 .282.514.562 1.233.609.308 0 .822-.047 1.13-.234l5.343-1.637c5.137-1.31 4.315-1.217 9.349-2.2.103 0 5.857-1.028 6.062-1.31.617-.514.925-.888.925-1.169v-.093c0-.515-1.027-.608-2.363-.796-1.233-.046-2.569-.093-3.802-.14a67.69 67.69 0 00-3.082-.047h-19.007L127.915.047C121.237.047 116.716 0 110.141 0c-5.651.047-11.2.047-16.748.047h-7.808c-2.363.047-4.623.093-6.884.093C67.4.28 56.098.561 44.796.89c-7.603.28-15.206.515-22.809.982-4.932.328-9.863.562-14.692.89-1.85.093-3.699.186-5.548.373C.617 3.462.103 3.884 0 4.304v.094c0 .608 1.027 1.216 2.569 1.31.719 0 1.54-.094 2.363-.328 1.644-.28 3.287-.374 5.034-.608 4.623-.421 9.35-.795 14.179-1.123 7.294-.468 14.795-.889 22.192-1.31 11.096-.561 22.295-.795 33.392-1.123 2.26-.046 4.52-.093 6.78-.187 2.57-.047 5.035-.14 7.604-.187 11.404-.234 22.809-.28 34.213-.28h3.185c15.72 0 31.234.327 46.954.748 3.801.094 7.706.234 11.507.421l4.726.234c1.028 0 1.952.093 2.98.14-1.85.562-3.288.936-5.343 1.59-1.541.516-3.288 1.03-4.829 1.498z"/></svg>
